X:1
T:2 Duette, Op.6
T:Abendlied
T:2 Duette, Op.6
T:2. Abendlied 
T:Luise Adolpha Le Beau
T:Konrad Hofmann von Nauborn
T:Creative Commons copyright waiver (CC0 1.0 Universal)
T:Creative Commons copyright waiver (CC0 1.0 Universal)
T:Creative Commons copyright waiver (CC0 1.0 Universal)
T:Creative Commons copyright waiver (CC0 1.0 Universal)
T:Creative Commons copyright waiver (CC0 1.0 Universal)
T:Creative Commons copyright waiver (CC0 1.0 Universal)
C:Luise Adolpha Le Beau
Z:Konrad Hofmann von Nauborn
Z:Creative Commons copyright waiver (CC0 1.0 Universal)
L:1/8
Q:1/4=116
M:4/4
K:A
V:1 treble nm="Soprano 1"
V:1
"^Munter" z4 z2!mf! E2 | e2 c2 B2 cB |!<(! (A3 B)!<)! c3 A |!<(! d2 ef!<)! e2!>(! d2 | %4
w: Im|West ist still ver- *|sun- * ken der|Son- ne * gold'- ner|
 c2!>)! z2 z2!p! c2 | (f3 B) Bc!<(! B2!<)! |!>(! (e2 ^d2!>)! =d2) c2 | B3!<(! c d!<)!c!>(! de | %8
w: Schein. Es|nei- gen schlum- * mer-|trun- * ken das|Haupt die Blü- * me- *|
 c2!>)! z2 z2!mf! c2 |!<(! c3 c c2 c2 | f4!<)! c2"^crescendo" z c | B3 B c2 B2 | e4 z2!f! e2 | %13
w: lein. Das|Schiff- lein zieht zum|Ha- fen, der|Mensch der Hüt- te|zu; o|
 e3 c f2 e2 | (e2!>(! d2 c2)!>)! B2 |!<(! !^!A3 E!<)! c2!>(! B2 | A2!>)! z2 z4 | z8 | z8 | z8 | %20
w: lass sie fried- lich|schla- * fen, du|Gott der Lie- be|du!||||
 z4 z2!mf! A2 | A3 A G2 A2 | c4 B2 A2 | E3 E F2 E2 |!f! e4 z2!mf! e2 | e2 d2 c2 B2 | %26
w: Und|nimm hin- weg die|Sor- gen, und|nimm hin- weg die|Pein! Wenn|Berg und Ta- le|
!<(! (=A3 B c2) A2!<)! |!<(! d2 A2 ^d2 B2 | e4!<)! z2!f! e2 | f2!>(! e2 =d2!>)! c2 | %30
w: la- * chen, nach|fried- lich stil- ler|Ruh, lass|frisch die Welt er-|
 (B2 f2 d2)!<(! B2 | A3 E c2 B2!<)! | A4 z2!f! A2 | f3 f f2 e2 |!>(! (e2 d2 c2) B2!>)! | %35
w: wa- * chen, du|Gott der Lie- be|du! Lass|frisch die Welt er-|wa- * chen, du|
!<(! A3 E c2 B2 | A4!<)! z4 | !fermata!z8 |] %38
w: Gott der Lie- be|du!||

